!!!OTL: 200. Reigen vom Hochzeitmachen.
!!!ARE: Europa, Mitteleuropa, Deutschland, Sachsen; Hessen
!!!SCT: K2200
!!!TXL: @@DE
!!!YEM: Copyright 1995, estate of Helmut Schaffrath.
**kern	**text
*clefG2	*
*M2/4	*
*k[f#]	*
*G:	*
=1	=1
{8g	Pe-
8g	-ter-
8g	-ſil-
8b/	-je,
=2	=2
8g	Sup-
8d	-pen-
4d}	-kraut
=3	=3
{8e	wächſt
8f#	in
8g	un-
8e	-ſerm
=4	=4
4d	Gar-
4B}	-ten
=5	=5
{8g	Un-
8g	-ſer
8g	Hann-
8b/	-chen
=6	=6
8g	iſt
8d	'ne
4d}	Braut,
=7	=7
{8e	ſoll
8f#	nicht
8g	län-
8e	-ger-
=8	=8
4d	-war-
4d}	-ten.
=9	=9
{8cc	Ro-
8a	-ther
4a	Wein,
=10	=10
8b	wei-
8g	-ßer
4g}	Wein,
=11	=11
{8a	mor-
8a	-gen
8f#	ſoll
8d	die
=12	=12
8dd	Hoch-
8dd	-ʒeit
4dd}	ſein.
=13	=13
{8cc	Ro-
8a	-ther
4a	Wein,
=14	=14
8b	wei-
8g	-ßer
4g}	Wein,
=15	=15
{8a	mor-
8a	-gen
8f#	ſoll
8d	ſie
=16	=16
2g}	ſein.
==	==
!!!AGN: Kinder - Lied, Reigen, Tanz - Spiel, Brautwerbung
!!!ONB: ESAC (Essen Associative Code) Database: KINDER
!!!AMT: simple duple
!!!AIN: vox
!!!EED: Helmut Schaffrath
!!!EEV: 1.0
!!!GTL: Zweites Buch. Kinderspiel: 2. Reigen und Tanzspiele. / D. Ringelreigen mit Wahl (Brautwerbung).
!!Melodie aus Sachsen und Hessen.
!!@@COMMENT:"Mündlich aus Leipʒig (1872) und Dresden (1872), aus Heſſen (Lewalter III. 67) und vom Rhein (Simrock Rr. 332). W. Walter, Volkslieder 196 (aus Leipʒig). 
!!Die Dresdner Mel. iſt am Schluß abweichend und monoton."
!!@@END:
!!!URL-scan: https://archive.org/details/DeutschesKinderliedUndKinderspiel/page/480/mode/1up
!!!ENC: Anna Maria Matuszewska
!!!EEV: 2024/03/09
*-	*-
